X: 2
T:Waltz Quadrille
M:3/4
L:1/4
C:
S:AABB form
R:Key of C
K:C
             |: e3|d3|cBA|G2G/2A/2|GDE|F2A/2B/2|ACD|E3|e3|d3|cBA|G2D/2E/
2|
FBB|BAG|GAB|c4:|!|:EDE|FEF|
GcE|G2G/2A/2|GDE|F2A/2B/2|ACD|E2C/2D/2|EDE|FEF|GcE|G2D/2E/2|FBB|BAG|GAB|
c3:|
